X: 16829
T: Harvest Fair
R: polka
M: 2/4
K: Gmajor
|:e/|dB c>e|dB cB|A^G/A/ dc|AB c>e|
dB ce|dB c/d/c/B/|AB/A/ dc|AB G3/2:|
|:e/|dB dg|fe e/f/g/d/|e^d/e/ ef|ed B/A/B/c/|
d2 dg|e2 e/f/g|fa d/e/f/g/|ag g3/2:|

